X:1
T:Title
%%score { ( 1 4 ) | ( 2 3 ) }
L:1/8
Q:1/4=126
M:6/4
K:Bb
V:1 treble nm="Grand Piano"
V:4 treble 
V:2 bass 
V:3 bass 
V:1
 [DB]3 [DB] [DB]2 c2 B2 G2 | [DF]6 [DB]4 [FB]2 | c3 d e2 c2 A2 F2 | [Fd]6- [Fd]4 [DF]2 | %4
w: Grace~Dickson~White * * * * *||||
 [DB]3 [DB] [DB]2 B2 A2 G2 | [DF]2 [EG]2 [DF]2 [DB]4 [FB]2 | %6
w: ||
 [=Ec]3 [Ec] [Ec]2 [C_EA]2 [B,EG]2 [A,EF]2 |[M:5/4] [B,DB]2- [B,DB]2- [B,DB]6 |[M:1/4] F2 | %9
w: |||
[M:6/4] c6 z6 |[M:5/4] z2 F4 z4 |[M:1/4] [DF]2 |[M:6/4] [Ec]6 [Ec]4 [A,EF]2 | %13
w: ||||
 .[B,DF]6 [Fd]4 [DF]2 |[M:5/4] [Fd]3 [Fd] [Fd]2 D2 E2 |[M:1/4] [B,FB]2 | %16
w: |||
[M:6/4] [Ge]3 [Ge] [Ge]2 G4 GG | F2 d3 B c c3 c2 | [DB]12 |] %19
w: |||
V:2
 [B,,F,]3 [B,,F,] [B,,F,]2 [E,G,E]2 [E,G,E]2 [E,B,E]2 | [B,,B,]6 [B,,F,]4 [D,B,]2 | %2
 [F,A,F]3 [F,B,F] [F,CF]2 [F,A,F]2 [F,CE]2 [F,A,E]2 | [B,,B,]6- [B,,B,]4 [B,,B,]2 | z6 .G,6 | %5
 [B,,B,]2 [B,,B,]2 [B,,B,]2 [B,,F,]4 [D,B,]2 | [C,B,]3 [C,B,] [C,B,]2 F,2 F,2 F,2 | %7
[M:5/4] B,,2- B,,2- B,,6 |[M:1/4] F,2 |[M:6/4] .[F,A,E]6 z2 F2 F,2 |[M:5/4] z2 D2 C2 [B,,B,]4 | %11
[M:1/4] [B,,B,]2 |[M:6/4] A,3 G, F,2 z2 G,2 F,2 | z2 A,2 G,2 [B,,F,]4 [B,,B,]2 | %14
[M:5/4] [B,,B,]3 [B,,B,] [B,,B,]2 B,,2 C,2 |[M:1/4] D,2 | %16
[M:6/4] [E,B,]3 [E,B,] [E,B,]2 [E,B,E]4 [=E,B,_D][E,B,D] | %17
 [F,B,D]2 [F,B,F]3 [F,DF] [F,A,E] [F,A,E]3 [F,A,E]2 | [B,,B,]12 |] %19
V:3
 x12 | x12 | x12 | x12 | [B,,F,]3 [B,,F,] [B,,F,]2 [E,E]2- [E,A,E]2 [E,B,E]2 | x12 | x12 | %7
[M:5/4] x10 |[M:1/4] x2 |[M:6/4] z6 .[F,A,]6 |[M:5/4] B,,6 z4 |[M:1/4] x2 |[M:6/4] .F,6 .F,6 | %13
 B,,6 z6 |[M:5/4] x10 |[M:1/4] x2 |[M:6/4] x12 | x12 | x12 |] %19
V:4
 x12 | x12 | x12 | x12 | x12 | x12 | x12 |[M:5/4] x10 |[M:1/4] x2 | %9
[M:6/4] z2 z F A2 .[Gc]4 [A,EF]2 |[M:5/4] [B,DF]2 z2 E2 [DB]4 |[M:1/4] x2 |[M:6/4] x12 | x12 | %14
[M:5/4] z2 z4 [B,B]4 |[M:1/4] x2 |[M:6/4] x12 | x12 | x12 |] %19

